public/images/200902_Konzept-02.svg

<?xml version="1.0" encoding="UTF-8" standalone="no"?>
<!-- Generator: Adobe Illustrator 21.1.0, SVG Export Plug-In . SVG Version: 6.00 Build 0)  -->

<svg
   xmlns:dc="http://purl.org/dc/elements/1.1/"
   xmlns:cc="http://creativecommons.org/ns#"
   xmlns:rdf="http://www.w3.org/1999/02/22-rdf-syntax-ns#"
   xmlns:svg="http://www.w3.org/2000/svg"
   xmlns="http://www.w3.org/2000/svg"
   xmlns:sodipodi="http://sodipodi.sourceforge.net/DTD/sodipodi-0.dtd"
   xmlns:inkscape="http://www.inkscape.org/namespaces/inkscape"
   version="1.1"
   x="0px"
   y="0px"
   viewBox="0 0 295.29998 281.12274"
   xml:space="preserve"
   id="svg26"
   sodipodi:docname="200902_Konzept-02.svg"
   width="492.16663"
   height="468.5379"
   inkscape:version="0.92.3 (2405546, 2018-03-11)"><metadata
   id="metadata32"><rdf:RDF><cc:Work
       rdf:about=""><dc:format>image/svg+xml</dc:format><dc:type
         rdf:resource="http://purl.org/dc/dcmitype/StillImage" /><dc:title></dc:title></cc:Work></rdf:RDF></metadata><defs
   id="defs30" /><sodipodi:namedview
   pagecolor="#ffffff"
   bordercolor="#666666"
   borderopacity="1"
   objecttolerance="10"
   gridtolerance="10"
   guidetolerance="10"
   inkscape:pageopacity="0"
   inkscape:pageshadow="2"
   inkscape:window-width="2079"
   inkscape:window-height="1208"
   id="namedview28"
   showgrid="false"
   scale-x="0.6"
   fit-margin-top="0"
   fit-margin-left="0"
   fit-margin-right="0"
   fit-margin-bottom="-2.7755576e-17"
   inkscape:zoom="0.50459695"
   inkscape:cx="-179.73094"
   inkscape:cy="389.98333"
   inkscape:window-x="0"
   inkscape:window-y="50"
   inkscape:window-maximized="0"
   inkscape:current-layer="svg26" />
<style
   type="text/css"
   id="style2">
	.st0{fill:#A5D0A8;}
	.st1{clip-path:url(#SVGID_2_);}
	.st2{clip-path:url(#SVGID_4_);}
	.st3{fill-rule:evenodd;clip-rule:evenodd;fill:#FFFFFF;}
	.st4{fill:#FFFBDC;stroke:#000000;stroke-width:4;stroke-miterlimit:10;}
	.st5{fill:#B9D6F2;}
	.st6{fill:#F9E500;}
	.st7{fill:#067F93;}
	.st8{fill:#FCFCFC;}
	.st9{fill-rule:evenodd;clip-rule:evenodd;fill:#037171;}
	.st10{fill:#037171;}
	.st11{fill-rule:evenodd;clip-rule:evenodd;fill:#A5D0A8;}
	.st12{fill-rule:evenodd;clip-rule:evenodd;fill:#00303C;}
	.st13{fill-rule:evenodd;clip-rule:evenodd;fill:#FFFF00;}
	.st14{fill-rule:evenodd;clip-rule:evenodd;fill:#B9D6F2;}
	.st15{fill:none;stroke:#000000;stroke-width:5.669;stroke-miterlimit:10;}
	.st16{opacity:0;}
	.st17{fill:#FFFFFF;}
	.st18{fill:url(#);}
	.st19{fill-rule:evenodd;clip-rule:evenodd;fill:url(#);}
	.st20{fill:none;stroke:#000000;stroke-width:31;stroke-linecap:square;stroke-miterlimit:10;}
	.st21{fill:none;stroke:#000000;stroke-width:3;stroke-miterlimit:10;}
	.st22{fill:none;stroke:#000000;stroke-width:2.835;stroke-linejoin:round;stroke-miterlimit:10;}
	.st23{fill:none;stroke:#000000;stroke-width:1.984;stroke-miterlimit:10;}
	.st24{fill:#E2E1E1;}
	.st25{fill:none;stroke:#00303C;stroke-width:6;stroke-miterlimit:10;}
	.st26{fill:#E2E1E1;stroke:#000000;stroke-width:6;stroke-miterlimit:10;}
	.st27{fill:none;stroke:#00303C;stroke-width:4.4694;stroke-miterlimit:10;}
	.st28{fill:#FFFFFF;stroke:#00303C;stroke-width:4.4694;stroke-miterlimit:10;}
	.st29{fill:none;}
	.st30{fill:#00303C;}
	.st31{fill:#3C3C3B;}
	.st32{fill:#FFFBDC;stroke:#00303C;stroke-width:5;stroke-miterlimit:10;}
	.st33{fill:#00303C;stroke:#00303C;stroke-width:4.4694;stroke-miterlimit:10;}
	.st34{clip-path:url(#SVGID_12_);}
	.st35{clip-path:url(#SVGID_14_);}
</style>
<g
   id="Ebene_1"
   transform="translate(-72,-93.177265)">
</g>
<g
   id="Ebene_4"
   transform="translate(-72,-93.177265)">
</g>
<g
   id="Ebene_3"
   transform="translate(-72,-93.177265)">
	<g
   id="g22">
		<rect
   x="74"
   y="182.5"
   class="st4"
   width="291.29999"
   height="189.8"
   id="rect6"
   style="fill:#fffbdc;stroke:#000000;stroke-width:4;stroke-miterlimit:10" />
		<g
   id="g16">
			<path
   class="st28"
   d="M 257.1,238.4 205.7,250 c -1.1,0.2 -2,-0.8 -1.8,-1.9 l 12.2,-52 c 0.1,-0.3 0.2,-0.5 0.4,-0.7 l 82.8,-85.2 14,-14.4 c 0.6,-0.6 1.5,-0.6 2.1,0 l 39.3,40.4 c 0.6,0.6 0.6,1.6 0,2.2 L 257.9,238 c -0.2,0.2 -0.5,0.4 -0.8,0.4 z"
   id="path8"
   inkscape:connector-curvature="0"
   style="fill:#ffffff;stroke:#00303c;stroke-width:4.46939993;stroke-miterlimit:10" />
			<polygon
   class="st0"
   points="297.6,114.5 218.6,196.1 260.4,238 340.5,155.5 "
   id="polygon10"
   style="fill:#a5d0a8" />
			<line
   class="st28"
   x1="230.8"
   y1="209.7"
   x2="309.39999"
   y2="128.89999"
   id="line12"
   style="fill:#ffffff;stroke:#00303c;stroke-width:4.46939993;stroke-miterlimit:10" />
			<line
   class="st28"
   x1="244.39999"
   y1="224.8"
   x2="325.5"
   y2="141.3"
   id="line14"
   style="fill:#ffffff;stroke:#00303c;stroke-width:4.46939993;stroke-miterlimit:10" />
		</g>
		<polygon
   class="st27"
   points="295.1,114.5 216.1,196.1 257.9,238 338,155.5 "
   id="polygon18"
   style="fill:none;stroke:#00303c;stroke-width:4.46939993;stroke-miterlimit:10" />
		<polygon
   class="st27"
   points="295.1,114.5 216.1,196.1 257.9,238 338,155.5 "
   id="polygon20"
   style="fill:none;stroke:#00303c;stroke-width:4.46939993;stroke-miterlimit:10" />
	</g>
</g>
<g
   id="Ebene_2"
   transform="translate(-72,-93.177265)">
</g>
</svg>

<?xml version="1.0" encoding="UTF-8" standalone="no"?>
<!DOCTYPE svg PUBLIC "-//W3C//DTD SVG 1.1//EN" "http://www.w3.org/Graphics/SVG/1.1/DTD/svg11.dtd">
<svg width="100%" height="100%" viewBox="0 0 596 468" version="1.1" xmlns="http://www.w3.org/2000/svg" xmlns:xlink="http://www.w3.org/1999/xlink" xml:space="preserve" xmlns:serif="http://www.serif.com/" style="fill-rule:evenodd;clip-rule:evenodd;stroke-miterlimit:10;">
    <g transform="matrix(1,0,0,1,-645,0)">
        <g id="ArtBoard2" transform="matrix(1,0,0,1,-0.28,0)">
            <rect x="645.28" y="0" width="595.28" height="467.72" style="fill:none;"/>
            <g transform="matrix(0.943665,0,0,0.943665,755.101,-5.00526)">
                <g transform="matrix(1.18547,0,0,1.18547,-61.3582,-21.9488)">
                    <rect x="74" y="182.5" width="291.3" height="189.8" style="fill:rgb(255,251,220);stroke:black;stroke-width:3.58px;"/>
                </g>
                <g transform="matrix(1.18547,0,0,1.18547,-61.3582,-21.9488)">
                    <path d="M257.1,238.4L205.7,250C204.6,250.2 203.7,249.2 203.9,248.1L216.1,196.1C216.2,195.8 216.3,195.6 216.5,195.4L299.3,110.2L313.3,95.8C313.9,95.2 314.8,95.2 315.4,95.8L354.7,136.2C355.3,136.8 355.3,137.8 354.7,138.4L257.9,238C257.7,238.2 257.4,238.4 257.1,238.4Z" style="fill:white;fill-rule:nonzero;stroke:rgb(0,48,60);stroke-width:4.47px;"/>
                    <path d="M216.1,196.249L257.794,238L338,155.723L294.994,114.5L216.1,196.249Z" style="fill:rgb(165,208,168);fill-rule:nonzero;"/>
                    <path d="M230.8,209.7L309.4,128.9" style="fill:none;fill-rule:nonzero;stroke:rgb(0,48,60);stroke-width:4.47px;"/>
                    <path d="M244.4,224.8L325.5,141.3" style="fill:none;fill-rule:nonzero;stroke:rgb(0,48,60);stroke-width:4.47px;"/>
                </g>
                <g transform="matrix(1.18547,0,0,1.18547,-61.3582,-21.9488)">
                    <path d="M216.1,196.1L257.9,238L338,155.5L295.1,114.5L216.1,196.1Z" style="fill:none;fill-rule:nonzero;stroke:rgb(0,48,60);stroke-width:4.47px;stroke-linejoin:round;"/>
                </g>
            </g>
        </g>
    </g>
</svg>
